style-guide/assets/wds-icons-trash-empty-small.svg

<svg xmlns="http://www.w3.org/2000/svg" xmlns:xlink="http://www.w3.org/1999/xlink" width="18" height="18" viewBox="0 0 18 18">
  <defs>
    <path id="trash-empty-a" d="M6,9.9995 C6,9.4465 6.447,8.9995 7,8.9995 C7.553,8.9995 8,9.4465 8,9.9995 L8,12.9995 C8,13.5525 7.553,13.9995 7,13.9995 C6.447,13.9995 6,13.5525 6,12.9995 L6,9.9995 Z M4,3.9995 C3.604,3.9995 3.228,3.7615 3.071,3.3705 C2.866,2.8575 3.116,2.2765 3.629,2.0705 L8.629,0.0705 C9.137,-0.1315 9.724,0.1145 9.929,0.6285 C10.134,1.1415 9.884,1.7225 9.371,1.9285 L4.371,3.9285 C4.25,3.9765 4.124,3.9995 4,3.9995 Z M10,8.9995 C10,8.4465 10.447,7.9995 11,7.9995 C11.553,7.9995 12,8.4465 12,8.9995 L12,12.9995 C12,13.5525 11.553,13.9995 11,13.9995 C10.447,13.9995 10,13.5525 10,12.9995 L10,8.9995 Z M15,5.9995 C15.553,5.9995 16,6.4465 16,6.9995 L16,16.9995 C16,17.5525 15.553,17.9995 15,17.9995 L3,17.9995 C2.447,17.9995 2,17.5525 2,16.9995 L2,8.9995 C1.607,8.9995 1.235,8.7675 1.076,8.3825 C0.865,7.8725 1.107,7.2865 1.617,7.0755 L14.552,1.7185 C15.06,1.5085 15.647,1.7485 15.858,2.2595 C16.069,2.7695 15.827,3.3545 15.317,3.5655 L4,8.2535 L4,15.9995 L14,15.9995 L14,6.9995 C14,6.4465 14.447,5.9995 15,5.9995 Z"/>
  </defs>
  <use fill-rule="evenodd" xlink:href="#trash-empty-a"/>
</svg>

<svg viewBox="0 0 18 18" xmlns="http://www.w3.org/2000/svg">
  <path d="M6 10a1 1 0 1 1 2 0v3a1 1 0 1 1-2 0v-3zM4 4a1 1 0 0 1-.371-1.929l5-2a1 1 0 0 1 .742 1.858l-5 2a1.006 1.006 0 0 1-.371.07zm6 5a1 1 0 1 1 2 0v4a1 1 0 1 1-2 0V9zm5-3a1 1 0 0 1 1 1v10a1 1 0 0 1-1 1H3a1 1 0 0 1-1-1V9a1 1 0 0 1-.383-1.924l12.935-5.357a1 1 0 0 1 .765 1.847L4 8.253v7.745h10V7a1 1 0 0 1 1-1z" fill-rule="evenodd"/>
</svg>
